docs/img/icons/icon_vk.svg

<svg width="28" height="22" viewBox="0 0 28 22" fill="none" xmlns="http://www.w3.org/2000/svg">
<path d="M0.0853271 5.48988C0.0853271 4.63485 0.60043 4.17381 1.63064 4.10674L5.60048 4.13189C5.86691 4.13189 6.04453 4.25763 6.13334 4.50911C6.54187 5.76651 6.99925 6.85206 7.50547 7.76577C8.01169 8.67948 8.67333 9.7315 9.49039 10.9218C9.56144 11.0727 9.6769 11.1482 9.83675 11.1482C9.96109 11.1482 10.0588 11.0895 10.1298 10.9721L10.2098 10.6955L10.2364 6.34491C10.2364 6.04313 10.1609 5.84195 10.0099 5.74136C9.85896 5.64077 9.5792 5.56532 9.17067 5.51503C8.85096 5.46473 8.6911 5.28031 8.6911 4.96177C8.6911 4.89471 8.69998 4.84442 8.71774 4.81089C9.09074 3.72114 10.1565 3.17627 11.9149 3.17627L13.4069 3.15112C14.0819 3.15112 14.6414 3.31039 15.0855 3.62893C15.5295 3.94747 15.7516 4.45043 15.7516 5.13781V10.8464C15.8759 10.9302 15.9913 10.9721 16.0979 10.9721C16.3643 10.9721 16.5953 10.8212 16.7906 10.5195C18.7445 7.93761 19.8013 6.21079 19.9612 5.33899C19.9612 5.32223 19.979 5.28031 20.0145 5.21325C20.1388 4.96177 20.3431 4.74383 20.6273 4.55941C20.9115 4.37499 21.1601 4.24925 21.3733 4.18219C21.4443 4.14866 21.5243 4.13189 21.6131 4.13189H25.7428L26.0092 4.15704C26.3644 4.15704 26.6398 4.31631 26.8351 4.63485C26.9062 4.73544 26.955 4.84442 26.9817 4.96177C27.0083 5.07913 27.0261 5.19649 27.035 5.31384C27.0438 5.4312 27.0483 5.49826 27.0483 5.51503V5.69106C26.924 6.37844 26.6087 7.11192 26.1025 7.89151C25.5962 8.67109 24.9524 9.51355 24.1708 10.4189C23.3893 11.3242 22.9008 11.9194 22.7054 12.2044C22.5456 12.4056 22.4657 12.59 22.4657 12.7576C22.4657 12.8918 22.5367 13.0426 22.6788 13.2103L26.5687 17.8375C26.7819 18.1058 26.8884 18.3992 26.8884 18.7177C26.8884 19.1033 26.7286 19.4218 26.4089 19.6733C26.0891 19.9248 25.7072 20.0673 25.2632 20.1008L24.8103 20.126H20.7605C20.7427 20.126 20.7072 20.1302 20.6539 20.1385C20.6006 20.1469 20.5651 20.1511 20.5473 20.1511C20.1566 20.1511 19.7924 19.9919 19.455 19.6733C19.3306 19.5392 18.4958 18.55 16.9505 16.7059C16.8617 16.5885 16.7374 16.4795 16.5775 16.3789C16.5064 16.6472 16.4132 17.0328 16.2977 17.5357C16.1823 18.0387 16.0979 18.3992 16.0446 18.6171L15.9647 19.0446C15.7871 19.6314 15.4141 19.9835 14.8457 20.1008L14.4727 20.126H11.8616C10.3874 20.126 8.91756 19.4889 7.45218 18.2147C5.98681 16.9406 4.66797 15.2934 3.49566 13.2732C2.32336 11.2529 1.23099 8.90162 0.218543 6.21917C0.129733 6.00122 0.0853271 5.75813 0.0853271 5.48988ZM16.0979 12.0032C15.7249 12.0032 15.3874 11.9068 15.0855 11.714C14.7835 11.5212 14.6325 11.2571 14.6325 10.9218V5.13781C14.6325 4.8025 14.5437 4.5636 14.3661 4.42109C14.1885 4.27859 13.8776 4.20734 13.4336 4.20734L11.9149 4.25763C11.1512 4.25763 10.5739 4.38337 10.1831 4.63485C10.9647 4.98692 11.3554 5.55694 11.3554 6.34491V10.7709C11.3199 11.1901 11.1423 11.538 10.8226 11.8146C10.5028 12.0912 10.1476 12.2295 9.75682 12.2295C9.22396 12.2295 8.81543 11.9864 8.53124 11.5002C7.14579 9.52193 6.11558 7.64422 5.44062 5.8671L5.20083 5.21325L1.65728 5.18811C1.42637 5.18811 1.29759 5.20068 1.27095 5.22583C1.24431 5.25098 1.23099 5.32223 1.23099 5.43958C1.23099 5.59047 1.24875 5.74974 1.28427 5.9174L1.84378 7.32568C3.3358 10.9637 4.9566 13.8306 6.70617 15.9263C8.45575 18.0219 10.1742 19.0698 11.8616 19.0698H14.526C14.6325 19.0698 14.7125 19.0404 14.7658 18.9817C14.819 18.9231 14.8634 18.8099 14.899 18.6422L14.9523 18.3908L15.4585 16.1778C15.6006 15.876 15.7249 15.6748 15.8315 15.5742C16.0269 15.3898 16.2578 15.2976 16.5242 15.2976C16.9505 15.2976 17.3857 15.5407 17.8297 16.0269L20.0944 18.7428C20.2365 18.9608 20.3875 19.0698 20.5473 19.0698H24.9435C25.4763 19.0698 25.7428 18.944 25.7428 18.6925C25.7428 18.6087 25.7161 18.5249 25.6628 18.4411L21.7996 13.8893C21.4976 13.5372 21.3466 13.16 21.3466 12.7576C21.3466 12.3553 21.4887 11.9697 21.7729 11.6008C22.0038 11.2655 22.4523 10.7081 23.1184 9.92849C23.7845 9.1489 24.3662 8.41961 24.8635 7.74062C25.3609 7.06163 25.6895 6.4455 25.8493 5.89225L25.9293 5.56532C25.9115 5.53179 25.9026 5.47731 25.9026 5.40186C25.9026 5.32642 25.8937 5.26355 25.876 5.21325H21.693C21.4266 5.31384 21.2134 5.46473 21.0536 5.66592L20.8937 6.14373C20.4496 7.30053 19.2862 9.08603 17.4034 11.5002C17.0304 11.8355 16.5953 12.0032 16.0979 12.0032Z" fill="#666666"/>
</svg>

<svg width="28" height="22" fill="none" xmlns="http://www.w3.org/2000/svg"><path d="M.085 5.49c0-.855.515-1.316 1.546-1.383l3.97.025a.52.52 0 01.532.377C6.542 5.767 7 6.852 7.505 7.766c.507.913 1.168 1.966 1.985 3.156a.36.36 0 00.347.226c.124 0 .222-.059.293-.176l.08-.277.026-4.35c0-.302-.075-.503-.226-.604-.151-.1-.43-.176-.84-.226-.319-.05-.479-.235-.479-.553 0-.067.009-.118.027-.151.373-1.09 1.438-1.635 3.197-1.635l1.492-.025c.675 0 1.234.16 1.678.478.444.318.667.821.667 1.509v5.708a.63.63 0 00.346.126c.266 0 .497-.15.693-.452 1.953-2.582 3.01-4.31 3.17-5.181a.42.42 0 01.054-.126c.124-.251.328-.47.612-.654.285-.184.533-.31.746-.377a.555.555 0 01.24-.05h4.13l.266.025c.355 0 .63.16.826.478.071.1.12.21.147.327.026.117.044.234.053.352.009.117.013.184.013.201v.176c-.124.687-.44 1.42-.945 2.2-.507.78-1.15 1.623-1.932 2.528s-1.27 1.5-1.466 1.785c-.16.202-.24.386-.24.554 0 .134.072.285.214.452l3.89 4.627c.213.269.32.562.32.88 0 .386-.16.705-.48.956a2.06 2.06 0 01-1.146.428l-.453.025h-4.05a.875.875 0 00-.106.012.862.862 0 01-.107.013c-.39 0-.755-.16-1.092-.478-.124-.134-.96-1.123-2.504-2.967a1.384 1.384 0 00-.373-.327c-.072.268-.165.654-.28 1.157-.116.503-.2.863-.253 1.081l-.08.428c-.178.586-.55.938-1.12 1.056l-.372.025h-2.611c-1.475 0-2.944-.637-4.41-1.911-1.465-1.274-2.784-2.922-3.956-4.942C2.323 11.253 1.23 8.902.219 6.22a1.916 1.916 0 01-.134-.73zm16.013 6.513c-.373 0-.71-.096-1.012-.289-.303-.193-.454-.457-.454-.792V5.138c0-.335-.088-.574-.266-.717-.178-.142-.488-.214-.932-.214l-1.52.05c-.763 0-1.34.126-1.73.378.78.352 1.171.922 1.171 1.71v4.426a1.5 1.5 0 01-.532 1.044 1.59 1.59 0 01-1.066.415c-.533 0-.942-.244-1.226-.73-1.385-1.978-2.415-3.856-3.09-5.633l-.24-.654-3.544-.025c-.23 0-.36.013-.386.038-.027.025-.04.096-.04.214 0 .15.018.31.053.477l.56 1.409c1.492 3.638 3.113 6.505 4.862 8.6 1.75 2.096 3.468 3.144 5.156 3.144h2.664c.107 0 .187-.03.24-.088.053-.059.097-.172.133-.34l.053-.251.507-2.213c.142-.302.266-.503.373-.604a.976.976 0 01.692-.276c.427 0 .862.243 1.306.729l2.264 2.716c.142.218.293.327.453.327h4.396c.533 0 .8-.126.8-.378a.465.465 0 00-.08-.25L21.8 13.888c-.302-.352-.453-.729-.453-1.131 0-.403.142-.788.426-1.157.23-.336.68-.893 1.345-1.673a37.63 37.63 0 001.745-2.187c.498-.68.826-1.295.986-1.849l.08-.327a.37.37 0 01-.026-.163.574.574 0 00-.027-.189h-4.183c-.266.1-.48.252-.64.453l-.16.478c-.443 1.157-1.607 2.942-3.49 5.356a1.892 1.892 0 01-1.305.503z" fill="#666"/></svg>
